static/img/common/ico-clue-tcp-ip.svg

<svg width="21" height="19" viewBox="0 0 21 19" fill="none" xmlns="http://www.w3.org/2000/svg">
<path d="M14.32 18.2C11.48 18.2 9.17 15.89 9.17 13.05V5.65C9.17 4.27 8.05 3.15 6.67 3.15C5.29 3.15 4.17 4.27 4.17 5.65V9.35C4.17 10.08 3.58 10.67 2.85 10.67C2.12 10.67 1.53 10.08 1.53 9.35V5.65C1.53 2.81 3.84 0.5 6.68 0.5C9.52 0.5 11.83 2.81 11.83 5.65V13.05C11.83 14.43 12.95 15.55 14.33 15.55C15.71 15.55 16.83 14.43 16.83 13.05V9.35C16.83 8.62 17.42 8.03 18.15 8.03C18.88 8.03 19.47 8.62 19.47 9.35V13.05C19.47 15.89 17.16 18.2 14.32 18.2Z" fill="white" stroke="currentColor" stroke-linecap="round" stroke-linejoin="round"/>
<path d="M18.14 5.21001C19.4379 5.21001 20.49 4.15788 20.49 2.86001C20.49 1.56214 19.4379 0.51001 18.14 0.51001C16.8421 0.51001 15.79 1.56214 15.79 2.86001C15.79 4.15788 16.8421 5.21001 18.14 5.21001Z" fill="white" stroke="currentColor" stroke-linecap="round" stroke-linejoin="round"/>
<path d="M2.85 18.2C4.14787 18.2 5.2 17.1479 5.2 15.85C5.2 14.5521 4.14787 13.5 2.85 13.5C1.55213 13.5 0.5 14.5521 0.5 15.85C0.5 17.1479 1.55213 18.2 2.85 18.2Z" fill="white" stroke="currentColor" stroke-linecap="round" stroke-linejoin="round"/>
</svg>

<svg xmlns="http://www.w3.org/2000/svg" width="21" height="19" fill="none" viewBox="0 0 21 19"><path fill="#fff" stroke="currentColor" stroke-linecap="round" stroke-linejoin="round" d="M14.32 18.2c-2.84 0-5.15-2.31-5.15-5.15v-7.4a2.5 2.5 0 0 0-5 0v3.7c0 .73-.59 1.32-1.32 1.32s-1.32-.59-1.32-1.32v-3.7C1.53 2.81 3.84.5 6.68.5s5.15 2.31 5.15 5.15v7.4a2.5 2.5 0 0 0 5 0v-3.7c0-.73.59-1.32 1.32-1.32s1.32.59 1.32 1.32v3.7c0 2.84-2.31 5.15-5.15 5.15M18.14 5.21a2.35 2.35 0 1 0 0-4.7 2.35 2.35 0 0 0 0 4.7M2.85 18.2a2.35 2.35 0 1 0 0-4.7 2.35 2.35 0 0 0 0 4.7"/></svg>
